<?xml version="1.0" encoding="UTF-8"?>
<map version="1.11" tiledversion="1.12.1" orientation="orthogonal" renderorder="right-down" width="16" height="28" tilewidth="40" tileheight="40" infinite="0" backgroundcolor="#0e001d" nextlayerid="10" nextobjectid="36">
 <editorsettings>
  <export target="crossroads.lua" format="lua"/>
 </editorsettings>
 <properties>
  <property name="music" value="resonance_muffled"/>
  <property name="use_footstep_sounds" type="bool" value="true"/>
 </properties>
 <tileset firstgid="1" source="../../tilesets/vapor.tsx"/>
 <tileset firstgid="421" source="../../tilesets/vapor_objects.tsx"/>
 <objectgroup id="8" name="objects_pillars_below">
  <object id="23" gid="422" x="280" y="240" width="80" height="144"/>
 </objectgroup>
 <layer id="1" name="Tile Layer 1" width="16" height="28">
  <data encoding="csv">
0,0,0,0,0,0,0,0,0,0,0,0,0,0,0,0,
0,0,0,0,0,0,0,0,0,0,0,0,0,0,0,0,
0,10,0,0,0,0,0,0,0,0,0,0,0,0,10,0,
101,101,101,102,0,0,0,0,0,0,0,0,106,107,107,107,
121,121,3,122,123,0,0,0,0,0,0,125,126,1,127,127,
141,141,23,142,143,123,0,10,10,0,125,145,146,21,147,147,
161,161,43,162,163,143,144,144,144,144,145,165,166,41,167,167,
181,181,181,182,183,163,1,2,2,3,165,185,186,187,187,187,
201,201,201,202,203,183,21,184,184,23,185,205,206,207,207,207,
65,65,65,65,202,203,41,22,22,43,205,65,65,65,65,65,
65,65,65,65,65,202,27,22,22,28,206,65,65,65,65,65,
85,85,85,85,85,85,67,22,22,68,85,85,85,85,85,85,
0,0,0,0,0,0,24,22,22,26,0,0,0,0,0,0,
0,0,0,0,0,0,24,22,22,26,0,0,0,0,0,0,
0,0,0,0,0,0,24,22,22,8,5,5,6,0,0,0,
0,0,0,0,0,0,24,22,22,2,2,2,26,0,0,0,
0,0,0,0,0,0,24,22,22,42,42,42,26,0,0,0,
0,0,0,0,0,0,24,22,22,28,45,45,46,0,0,0,
0,0,0,4,5,5,7,22,22,68,85,85,86,0,0,0,
0,0,0,24,2,2,2,22,22,26,0,0,0,0,0,0,
0,0,0,24,42,42,42,22,22,26,0,0,0,0,0,0,
0,0,0,44,45,45,27,22,22,26,0,0,0,0,0,0,
0,0,0,84,85,85,67,22,22,26,0,0,0,0,0,0,
0,0,0,0,0,0,24,22,22,26,0,0,0,0,0,0,
0,0,0,0,0,0,24,22,22,26,0,0,0,0,0,0,
0,0,0,0,0,0,24,22,22,26,0,0,0,0,0,0,
0,0,0,0,0,0,24,22,22,26,0,0,0,0,0,0,
0,0,0,0,0,0,24,22,22,26,0,0,0,0,0,0
</data>
 </layer>
 <objectgroup color="#0000ff" id="2" name="collision">
  <object id="1" x="160" y="840" width="120" height="280"/>
  <object id="2" x="360" y="680" width="120" height="440"/>
  <object id="3" x="360" y="400" width="120" height="200"/>
  <object id="4" x="480" y="600" width="40" height="80"/>
  <object id="5" x="120" y="760" width="40" height="80"/>
  <object id="6" x="160" y="400" width="120" height="360"/>
  <object id="7" x="0" y="280" width="120" height="120"/>
  <object id="8" x="520" y="280" width="120" height="120"/>
  <object id="9" x="520" y="120" width="120" height="40"/>
  <object id="10" x="0" y="120" width="120" height="40"/>
  <object id="11" x="240" y="240" width="160" height="40"/>
  <object id="12" x="240" y="400">
   <polygon points="0,0 -120,-120 -120,0"/>
  </object>
  <object id="13" x="400" y="400">
   <polygon points="0,0 120,-120 120,0"/>
  </object>
  <object id="18" x="240" y="280">
   <polygon points="0,0 -120,-120 0,-120"/>
  </object>
  <object id="19" x="400" y="280">
   <polygon points="0,0 120,-120 0,-120"/>
  </object>
 </objectgroup>
 <objectgroup color="#ff00ff" id="3" name="objects">
  <object id="14" name="transition" x="-40" y="160" width="40" height="120">
   <properties>
    <property name="map" value="intro/item_1"/>
    <property name="marker" value="right"/>
   </properties>
  </object>
  <object id="15" name="transition" x="640" y="160" width="40" height="120">
   <properties>
    <property name="map" value="intro/slides_1"/>
    <property name="marker" value="left"/>
   </properties>
  </object>
  <object id="16" name="transition" x="280" y="1120" width="80" height="40">
   <properties>
    <property name="map" value="intro/pillars_1"/>
    <property name="marker" value="up"/>
   </properties>
  </object>
  <object id="24" name="neonpalmtree" x="60" y="520">
   <properties>
    <property name="angle" value="-15"/>
   </properties>
   <point/>
  </object>
  <object id="25" name="neonpalmtree" x="580" y="520">
   <properties>
    <property name="angle" value="15"/>
   </properties>
   <point/>
  </object>
  <object id="34" gid="422" x="40" y="1080" width="80" height="144"/>
  <object id="35" gid="422" x="520" y="1080" width="80" height="144"/>
 </objectgroup>
 <layer id="9" name="overlay" width="16" height="28">
  <data encoding="csv">
0,0,0,0,0,0,0,0,0,0,0,0,0,0,0,0,
0,0,0,0,0,0,0,0,0,0,0,0,0,0,0,0,
0,0,0,0,0,0,0,0,0,0,0,0,0,0,0,0,
0,0,0,0,0,0,0,0,0,0,0,0,0,0,0,0,
0,0,0,0,0,0,0,0,0,0,0,0,0,0,0,0,
0,0,0,0,0,0,0,0,0,0,0,0,0,0,0,0,
0,0,0,0,0,0,0,0,0,0,0,0,0,0,0,0,
0,0,0,0,0,0,0,0,0,0,0,0,0,0,0,0,
0,0,0,0,0,0,0,0,0,0,0,0,0,0,0,0,
0,0,0,0,0,0,0,0,0,0,0,0,0,0,0,0,
0,0,0,0,0,0,0,0,0,0,0,0,0,0,0,0,
0,0,0,0,0,0,0,0,0,0,0,0,0,0,0,0,
0,10,0,0,0,0,0,0,0,0,0,0,0,0,10,0,
0,0,0,0,0,0,0,0,0,0,0,0,0,0,0,0,
0,0,0,0,0,0,0,0,0,0,0,0,0,0,0,0,
0,0,0,0,0,0,0,0,0,0,0,0,0,0,0,0,
0,0,0,0,0,0,0,0,0,0,0,0,0,0,0,0,
0,0,0,0,0,0,0,0,0,0,0,0,0,0,0,0,
0,0,0,0,0,0,0,0,0,0,0,0,0,0,0,0,
0,0,0,0,0,0,0,0,0,0,0,0,0,0,0,0,
0,0,0,0,0,0,0,0,0,0,0,0,0,0,0,0,
0,0,0,0,0,0,0,0,0,0,0,0,0,0,0,0,
0,0,0,0,0,0,0,0,0,0,0,0,0,0,0,0,
0,0,0,0,0,0,0,0,0,0,0,0,0,0,0,0,
0,0,0,0,0,0,0,0,0,0,0,0,0,0,0,0,
0,0,0,0,0,0,0,0,0,0,0,0,0,0,0,0,
0,10,10,0,0,0,0,0,0,0,0,0,0,10,10,0,
0,0,0,0,0,0,0,0,0,0,0,0,0,0,0,0
</data>
 </layer>
 <objectgroup color="#7f00ff" id="4" name="markers">
  <object id="17" name="down" x="320" y="1080">
   <point/>
  </object>
  <object id="20" name="left" x="40" y="240">
   <point/>
  </object>
  <object id="21" name="right" x="600" y="240">
   <point/>
  </object>
 </objectgroup>
 <objectgroup color="#00aa00" id="6" name="controllers">
  <object id="22" name="worldshader" x="10" y="20">
   <properties>
    <property name="shader" value="ntsc"/>
   </properties>
   <point/>
  </object>
 </objectgroup>
</map>
