<?xml version="1.0" encoding="UTF-8"?>
<map version="1.11" tiledversion="1.12.1" orientation="orthogonal" renderorder="right-down" width="16" height="25" tilewidth="40" tileheight="40" infinite="0" backgroundcolor="#0e001d" nextlayerid="8" nextobjectid="26">
 <editorsettings>
  <export target="item_1.lua" format="lua"/>
 </editorsettings>
 <properties>
  <property name="music" value="resonance_muffled"/>
  <property name="use_footstep_sounds" type="bool" value="true"/>
 </properties>
 <tileset firstgid="1" source="../../tilesets/vapor.tsx"/>
 <tileset firstgid="421" source="../../tilesets/vapor_objects.tsx"/>
 <objectgroup id="7" name="objects_pillars_below">
  <object id="24" gid="422" x="440" y="720" width="80" height="144"/>
  <object id="25" gid="422" x="120" y="720" width="80" height="144"/>
 </objectgroup>
 <layer id="1" name="Tile Layer 1" width="16" height="25">
  <data encoding="csv">
0,0,0,0,0,0,0,0,0,0,0,0,0,0,0,0,
0,0,0,0,0,0,0,0,0,0,0,0,0,0,0,0,
0,0,0,0,0,0,0,0,0,0,0,0,0,0,0,0,
0,0,0,0,4,5,5,5,5,5,5,6,0,0,0,0,
0,0,0,4,7,22,22,22,22,22,22,8,6,0,0,0,
0,0,0,24,22,22,22,22,22,22,22,22,26,0,0,0,
0,0,0,24,22,22,22,22,22,22,22,22,26,0,0,0,
0,0,0,24,22,22,22,22,22,22,22,22,26,0,0,0,
0,0,0,24,22,22,22,22,22,22,22,22,26,0,0,0,
0,0,0,44,27,22,22,22,22,22,22,28,46,0,0,0,
0,0,0,84,87,27,61,61,61,61,28,88,86,0,0,0,
0,0,0,0,84,67,61,61,61,61,68,86,0,0,0,0,
0,0,0,0,0,24,61,61,61,61,26,0,0,0,0,0,
0,0,0,0,0,24,61,61,61,61,26,0,0,0,0,0,
0,0,0,0,0,24,61,61,61,61,26,0,0,0,0,0,
0,0,0,0,0,24,61,61,61,61,26,0,0,0,0,0,
0,0,0,0,0,24,61,61,61,61,26,0,0,0,0,0,
0,0,0,10,10,24,61,61,61,61,26,10,10,0,0,0,
0,0,4,5,5,7,61,61,61,61,8,5,5,5,5,5,
0,0,24,2,2,2,2,2,2,2,2,2,2,2,2,2,
0,0,24,22,22,22,22,22,22,22,22,22,22,22,22,22,
0,0,24,42,42,42,42,42,42,42,42,42,42,42,42,42,
0,0,44,45,45,45,45,45,45,45,45,45,45,45,45,45,
0,0,64,65,65,65,65,65,65,65,65,65,65,65,65,65,
0,0,64,65,65,65,65,65,65,65,65,65,65,65,65,65
</data>
 </layer>
 <objectgroup color="#0000ff" id="2" name="collision">
  <object id="1" x="160" y="160" width="40" height="80"/>
  <object id="2" x="440" y="160" width="40" height="80"/>
  <object id="3" x="200" y="120" width="240" height="40"/>
  <object id="4" x="480" y="200" width="40" height="160"/>
  <object id="5" x="440" y="360" width="40" height="40"/>
  <object id="6" x="120" y="200" width="40" height="160"/>
  <object id="7" x="160" y="360" width="40" height="40"/>
  <object id="8" x="120" y="400" width="120" height="360"/>
  <object id="9" x="400" y="400" width="240" height="360"/>
  <object id="11" x="80" y="760" width="40" height="120"/>
  <object id="12" x="120" y="880" width="520" height="40"/>
 </objectgroup>
 <objectgroup color="#ff00ff" id="3" name="objects">
  <object id="13" name="transition" x="640" y="760" width="40" height="120">
   <properties>
    <property name="map" value="intro/crossroads"/>
    <property name="marker" value="left"/>
   </properties>
  </object>
  <object id="15" name="chest" x="320" y="280">
   <properties>
    <property name="item" value="synthsoda"/>
   </properties>
  </object>
  <object id="18" name="neonpalmtree" x="180" y="240">
   <properties>
    <property name="angle" value="-5"/>
   </properties>
   <point/>
  </object>
  <object id="19" name="neonpalmtree" x="460" y="240">
   <properties>
    <property name="angle" value="5"/>
   </properties>
   <point/>
  </object>
  <object id="20" gid="422" x="520" y="320" width="80" height="144"/>
  <object id="21" gid="422" x="40" y="320" width="80" height="144"/>
 </objectgroup>
 <layer id="6" name="overlay" width="16" height="25">
  <data encoding="csv">
0,0,0,0,0,0,0,0,0,0,0,0,0,0,0,0,
0,0,0,0,0,0,0,0,0,0,0,0,0,0,0,0,
0,0,0,0,0,0,0,0,0,0,0,0,0,0,0,0,
0,0,0,0,0,0,0,0,0,0,0,0,0,0,0,0,
0,0,0,0,0,0,0,0,0,0,0,0,0,0,0,0,
0,0,0,0,0,0,0,0,0,0,0,0,0,0,0,0,
0,0,0,0,0,0,0,0,0,0,0,0,0,0,0,0,
0,10,10,0,0,0,0,0,0,0,0,0,0,10,10,0,
0,0,0,0,0,0,0,0,0,0,0,0,0,0,0,0,
0,0,0,0,0,0,0,0,0,0,0,0,0,0,0,0,
0,0,0,0,0,0,0,0,0,0,0,0,0,0,0,0,
0,0,0,0,0,0,0,0,0,0,0,0,0,0,0,0,
0,0,0,0,0,0,0,0,0,0,0,0,0,0,0,0,
0,0,0,0,0,0,0,0,0,0,0,0,0,0,0,0,
0,0,0,0,0,0,0,0,0,0,0,0,0,0,0,0,
0,0,0,0,0,0,0,0,0,0,0,0,0,0,0,0,
0,0,0,0,0,0,0,0,0,0,0,0,0,0,0,0,
0,0,0,0,0,0,0,0,0,0,0,0,0,0,0,0,
0,0,0,0,0,0,0,0,0,0,0,0,0,0,0,0,
0,0,0,0,0,0,0,0,0,0,0,0,0,0,0,0,
0,0,0,0,0,0,0,0,0,0,0,0,0,0,0,0,
0,0,0,0,0,0,0,0,0,0,0,0,0,0,0,0,
0,0,0,0,0,0,0,0,0,0,0,0,0,0,0,0,
0,0,0,0,0,0,0,0,0,0,0,0,0,0,0,0,
0,0,0,0,0,0,0,0,0,0,0,0,0,0,0,0
</data>
 </layer>
 <objectgroup color="#7f00ff" id="4" name="markers">
  <object id="14" name="right" x="600" y="840">
   <point/>
  </object>
 </objectgroup>
 <objectgroup color="#00aa00" id="5" name="controllers">
  <object id="16" name="worldshader" x="10" y="20">
   <properties>
    <property name="shader" value="ntsc"/>
   </properties>
   <point/>
  </object>
 </objectgroup>
</map>
