<?xml version="1.0" encoding="UTF-8"?>
<map version="1.11" tiledversion="1.12.1" orientation="orthogonal" renderorder="right-down" width="32" height="12" tilewidth="40" tileheight="40" infinite="0" backgroundcolor="#0e001d" nextlayerid="16" nextobjectid="38">
 <editorsettings>
  <export target="pillars_1.lua" format="lua"/>
 </editorsettings>
 <properties>
  <property name="music" value="resonance_muffled"/>
  <property name="name" value="????????"/>
  <property name="use_footstep_sounds" type="bool" value="true"/>
 </properties>
 <tileset firstgid="1" source="../../tilesets/vapor.tsx"/>
 <tileset firstgid="421" source="../../tilesets/vapor_objects.tsx"/>
 <tileset firstgid="423" source="../../tilesets/vapor_battle.tsx"/>
 <objectgroup id="7" name="objects_trees">
  <object id="22" name="neonpalmtree" x="40" y="240">
   <properties>
    <property name="angle" value="10"/>
   </properties>
   <point/>
  </object>
  <object id="23" name="neonpalmtree" x="400" y="160">
   <properties>
    <property name="angle" value="-15"/>
   </properties>
   <point/>
  </object>
 </objectgroup>
 <layer id="6" name="overlay" width="32" height="12">
  <data encoding="csv">
0,0,0,0,0,0,0,0,0,0,0,0,0,0,0,0,0,0,0,0,0,0,0,0,0,0,0,0,0,0,0,0,
0,0,0,0,0,0,0,0,0,0,0,0,0,0,0,0,0,0,0,0,0,0,0,0,0,0,0,0,0,0,0,0,
0,0,0,0,0,0,0,0,0,0,0,0,0,0,0,0,0,0,0,0,0,0,0,0,0,0,0,0,0,0,0,0,
0,0,0,0,0,0,0,0,0,10,10,0,0,0,0,0,0,0,0,0,0,0,0,0,0,0,0,0,0,0,0,0,
0,0,0,0,0,0,0,0,0,9,9,0,0,0,0,0,0,0,0,0,0,0,0,0,0,0,0,0,0,0,0,0,
10,10,10,0,0,0,0,0,0,0,0,0,0,0,0,0,0,0,0,0,0,0,0,0,0,0,0,0,0,0,0,0,
9,9,9,0,0,0,0,0,0,0,0,0,0,0,0,0,0,0,0,0,0,0,0,0,0,0,0,0,0,0,0,0,
0,0,0,0,0,0,0,0,0,0,0,0,0,0,0,0,0,0,0,0,0,0,0,0,0,0,0,0,0,0,0,0,
0,0,0,0,0,0,0,0,0,0,0,0,0,0,0,0,0,0,0,0,0,0,0,0,0,0,0,0,0,0,0,0,
0,0,0,0,0,0,0,0,0,0,0,0,0,0,0,0,0,0,0,0,0,0,0,0,0,0,0,0,0,0,0,0,
0,0,0,0,0,0,0,0,0,0,0,0,0,0,0,0,0,0,0,0,0,0,0,0,0,0,0,0,0,0,0,0,
0,0,0,0,0,0,0,0,0,0,0,0,0,0,0,0,0,0,0,0,0,0,0,0,0,0,0,0,0,0,0,0
</data>
 </layer>
 <layer id="2" name="Tile Layer 2" width="32" height="12">
  <data encoding="csv">
0,0,0,0,0,0,0,0,0,0,0,0,0,0,0,0,0,0,0,0,0,0,0,0,0,0,0,0,0,0,0,0,
0,0,0,0,0,0,0,0,0,0,0,0,0,0,0,0,0,0,0,0,0,0,0,0,0,0,0,0,0,0,0,0,
0,0,0,0,0,0,0,0,0,0,0,4,5,5,6,0,0,0,0,0,0,4,5,5,6,0,0,0,0,0,0,0,
0,0,0,0,0,0,0,0,0,0,0,24,1,3,26,0,0,0,0,0,0,24,1,3,26,0,0,0,0,0,0,0,
0,0,0,0,0,0,0,0,0,0,0,24,41,43,26,0,0,0,0,0,0,24,41,43,26,0,0,0,0,0,0,0,
0,0,0,0,0,0,0,0,0,0,0,44,45,45,46,0,4,5,5,6,0,44,45,45,46,0,0,0,0,0,0,0,
0,0,0,0,0,0,0,0,0,0,0,0,0,0,0,0,24,1,3,26,0,0,0,0,0,0,0,0,0,0,0,0,
0,0,0,0,0,0,0,0,0,0,0,0,0,0,0,0,24,41,43,26,0,0,0,0,0,0,0,0,0,0,0,0,
0,0,0,0,0,0,0,0,0,0,0,0,0,0,0,0,44,45,45,46,0,0,0,0,0,0,0,0,0,0,0,0,
0,0,0,0,0,0,0,0,0,0,0,0,0,0,0,0,0,0,0,0,0,0,0,0,0,0,0,0,0,0,0,0,
0,0,0,0,0,0,0,0,0,0,0,0,0,0,0,0,0,0,0,0,0,0,0,0,0,0,0,0,0,0,0,0,
0,0,0,0,0,0,0,0,0,0,0,0,0,0,0,0,0,0,0,0,0,0,0,0,0,0,0,0,0,0,0,0
</data>
 </layer>
 <layer id="1" name="Tile Layer 1" width="32" height="12">
  <data encoding="csv">
0,0,0,0,0,0,0,0,0,0,0,0,0,0,0,0,0,0,0,0,0,0,0,0,0,0,24,21,23,26,0,0,
0,0,0,0,0,0,0,0,0,0,0,0,0,0,0,0,0,0,0,0,0,0,0,0,0,0,24,21,23,26,0,0,
0,0,0,0,0,0,0,0,0,0,0,0,0,0,0,0,0,0,0,0,0,0,0,0,0,0,24,21,23,26,0,0,
0,0,4,5,5,5,5,5,5,6,0,0,0,0,0,0,0,0,0,0,0,0,0,0,0,0,24,21,23,26,0,0,
0,0,24,1,2,2,2,2,3,26,0,0,0,0,0,0,0,0,0,0,0,0,0,0,0,0,24,21,23,26,0,0,
0,0,24,21,22,22,22,22,23,8,5,5,5,5,5,6,0,0,0,0,4,5,5,5,5,5,7,21,23,26,0,0,
0,0,24,21,22,22,22,22,22,2,2,2,2,2,2,26,0,0,0,0,24,1,2,2,2,2,2,22,23,26,0,0,
0,0,24,21,22,22,22,22,22,42,42,42,42,42,42,26,0,0,0,0,24,21,42,42,42,42,42,42,43,26,0,0,
0,0,24,41,22,22,22,22,43,28,45,45,27,21,42,8,5,5,5,5,7,21,23,28,45,45,45,45,45,46,0,0,
0,0,44,27,61,61,61,61,28,88,85,85,67,21,42,22,22,22,22,22,22,22,23,68,85,85,85,85,85,86,0,0,
0,0,64,47,61,61,61,61,48,66,0,0,24,41,42,42,42,42,42,42,42,22,43,26,0,0,0,0,0,0,0,0,
0,0,84,67,61,61,61,61,68,86,0,0,44,45,45,45,45,45,45,45,45,45,45,46,0,0,0,0,0,0,0,0
</data>
 </layer>
 <layer id="15" name="battleborder" width="32" height="12">
  <data encoding="csv">
0,0,0,0,0,0,0,0,0,0,0,0,0,0,0,0,0,0,0,0,0,0,0,0,0,0,436,0,0,438,0,0,
0,0,0,0,0,0,0,0,0,0,0,0,0,0,0,0,0,0,0,0,0,0,0,0,0,0,436,0,0,438,0,0,
0,0,0,0,0,0,0,0,0,0,0,0,0,0,0,0,0,0,0,0,0,0,0,0,0,0,436,0,0,438,0,0,
0,0,426,427,427,427,427,427,427,428,0,0,0,0,0,0,0,0,0,0,0,0,0,0,0,0,436,0,0,438,0,0,
0,0,436,0,0,0,0,0,0,438,0,0,0,0,0,0,0,0,0,0,0,0,0,0,0,0,436,0,0,438,0,0,
0,0,436,0,0,0,0,0,0,430,427,427,427,427,427,428,0,0,0,0,426,427,427,427,427,427,429,0,0,438,0,0,
0,0,436,0,0,0,0,0,0,0,0,0,0,0,0,438,0,0,0,0,436,0,0,0,0,0,0,0,0,438,0,0,
0,0,436,0,0,0,0,0,0,0,0,0,0,0,0,438,0,0,0,0,436,0,0,0,0,0,0,0,0,438,0,0,
0,0,436,0,0,0,0,0,0,440,447,447,439,0,0,430,427,427,427,427,429,0,0,440,447,447,447,447,447,448,0,0,
0,0,446,439,453,453,453,453,440,448,0,0,436,0,0,0,0,0,0,0,0,0,0,438,0,0,0,0,0,468,0,0,
0,0,456,449,453,453,453,453,450,458,0,0,436,0,0,0,0,0,0,0,0,0,0,438,0,0,0,0,0,0,0,0,
0,0,466,459,453,453,453,453,460,468,0,0,446,447,447,447,447,447,447,447,447,447,447,448,0,0,0,0,0,0,0,0
</data>
 </layer>
 <objectgroup color="#0000ff" id="3" name="collision">
  <object id="2" x="120" y="120" width="240" height="40"/>
  <object id="3" x="360" y="160" width="720" height="80"/>
  <object id="4" x="1040" y="0" width="40" height="160"/>
  <object id="5" x="1160" y="0" width="40" height="320"/>
  <object id="6" x="360" y="320" width="160" height="40"/>
  <object id="7" x="320" y="360" width="40" height="120"/>
  <object id="8" x="120" y="360" width="40" height="120"/>
  <object id="9" x="80" y="160" width="40" height="200"/>
  <object id="32" x="520" y="440" width="400" height="40"/>
  <object id="34" x="920" y="320" width="280" height="40"/>
  <object id="35" x="920" y="360" width="40" height="120"/>
  <object id="36" x="480" y="360" width="40" height="120"/>
  <object id="37" x="600" y="240" width="240" height="120"/>
 </objectgroup>
 <objectgroup id="9" name="objects_trees2">
  <object id="27" name="neonpalmtree" x="1180" y="500">
   <properties>
    <property name="angle" value="5"/>
   </properties>
   <point/>
  </object>
 </objectgroup>
 <objectgroup color="#ff00ff" id="4" name="objects_party">
  <object id="10" name="savepoint" x="240" y="200">
   <properties>
    <property name="text1" value="* (Palm trees flash in hues of teal and pink,[wait:5] glistening on the tiled floors...)"/>
    <property name="text2">* (A strange feeling of anemoia 
shines within you.)</property>
   </properties>
   <point/>
  </object>
  <object id="11" name="transition" x="160" y="480" width="160" height="40">
   <properties>
    <property name="map" value="intro/start"/>
    <property name="marker" value="up"/>
   </properties>
  </object>
  <object id="12" name="transition" x="1080" y="-40" width="80" height="40">
   <properties>
    <property name="map" value="intro/crossroads"/>
    <property name="marker" value="down"/>
   </properties>
  </object>
  <object id="16" gid="422" x="480" y="180" width="80" height="144"/>
  <object id="17" gid="422" x="680" y="300" width="80" height="144"/>
  <object id="18" gid="422" x="880" y="180" width="80" height="144"/>
 </objectgroup>
 <objectgroup id="12" name="objects_eyes">
  <object id="29" name="pillar_eyeball" x="520" y="50">
   <properties>
    <property name="attackmode" value="tracking_sweep"/>
    <property name="maxtime" type="int" value="90"/>
    <property name="starttime" type="int" value="70"/>
    <property name="sweepangle" type="float" value="22.5"/>
   </properties>
   <point/>
  </object>
  <object id="30" name="pillar_eyeball" x="720" y="170">
   <properties>
    <property name="attackmode" value="tracking_sweep"/>
    <property name="maxtime" type="int" value="90"/>
    <property name="starttime" type="int" value="50"/>
    <property name="sweepangle" type="float" value="22.5"/>
   </properties>
   <point/>
  </object>
  <object id="31" name="pillar_eyeball" x="920" y="50">
   <properties>
    <property name="attackmode" value="tracking_sweep"/>
    <property name="maxtime" type="int" value="90"/>
    <property name="starttime" type="int" value="30"/>
    <property name="sweepangle" type="float" value="22.5"/>
   </properties>
   <point/>
  </object>
 </objectgroup>
 <objectgroup color="#7f00ff" id="5" name="markers">
  <object id="13" name="down" x="240" y="440">
   <point/>
  </object>
  <object id="14" name="up" x="1120" y="80">
   <point/>
  </object>
  <object id="15" name="spawn" x="240" y="280">
   <point/>
  </object>
 </objectgroup>
 <objectgroup color="#ffaaff" id="8" name="battleareas">
  <object id="26" x="400" y="240" width="640" height="200"/>
 </objectgroup>
 <objectgroup color="#00aa00" id="10" name="controllers">
  <object id="28" name="worldshader" x="10" y="20">
   <properties>
    <property name="shader" value="ntsc"/>
   </properties>
   <point/>
  </object>
 </objectgroup>
</map>
